X: 10102
T: Diferion Arian
R: slip jig
M: 9/8
K: Gmajor
|:GBG BcB d2 B|G/A/BG BcB G2 E|GBG BcB d2 B|cAA AB/A/G FED:|
|:GBd gfg e2 c|GB/c/d gfg d2 B|GBd gfg e2 c|gdB ABG F2 D:|

